X:1
T:Cest à grant tort
T:Claudin de Sermisy
T:Source : Second livre contenant 31 chansons à 4, eslevées de plusieurs livres---Paris---P.Attaignant---1535. Editor : André Vierendeels (05/05/18) Notes : Original clefs : C1, C3, C3, C4 Original note values have been halved Editorial accidentals above the staff Square brackets indicate ligatures
T:Cest à grant tort
T:©
T:©
T:©
C:Claudin de Sermisy
Z:©
%%score [ 1 [ 2 3 ] 4 ]
L:1/8
Q:1/4=120
M:2/2
K:C
V:1 treble nm="Soprano" snm="S"
V:2 treble nm="Alto" snm="A"
V:3 treble-8 nm="Tenor" snm="T"
V:4 bass nm="Bass" snm="B"
V:1
 G3 A Bc d2 | G2 c3 B/A/ B2 | c4 z2 A2 | B2 c2 d2 D2 | DEFG ABcA | B2 A3 G G2- |"^#" G2 F2 G4 | %7
w: Cest _ _ _ à|grant _ _ _ _|tort, que|moy, po- vret- t'en-|du- * * * * * * *||* * re,|
 z2 d2 d2 d2 | B2 B2 c2 d2 | e3 d/c/ BA d2- | dc c4 B2 | c4 z2 c2 | c2 c2 B4 | G2 G2 A2 B2 | %14
w: et que ie|suys de si tres-|court _ _ _ _ te-|* * nu- *|e, plus|mal- heu- reu-|se ny a des-|
 c3 B A2 G2 | F4 E4 | z2 G2 G3 A | Bc d2 G2 c2- | cB/A/ B2 c4 | z2 A2 B2 c2 | d2 D2 DEFG | %21
w: soubz _ _ la|nu- e,|à l'en- *|* * * * du-|* * * * rer,|ce mest pei-|ne trop du- * * *|
 ABcA B2 A2- |"^#" AG G4 F2 | G4 z2 G2 | G3 A Bc d2 | G2 c3 B/A/ B2 | c4 z2 A2 | B2 c2 d2 D2 | %28
w: ||re, à|l'en- * * * *|* * * * du-|rer, ce|mest pei- ne trop|
 DEFG ABcA | B2 A3 G G2- | G2 F2 G4- | G8 |] %32
w: du- * * * * * * *||* * re.|_|
V:2
 D4 G4- | G2 G2 G2 D2 | E3 F G2 F2 | D2 G,2 A,2 B,2- | B,C D2 C2 G2- | G2 F2 E2 C2 | D4 B,4- | %7
w: Cest à|_ grant tort, que|moy, _ _ po-|vret- t'en- du- *|||* re,|
 B,4 D2 D2 | D2 B,2 G,2 A,2 | G,2 G4 A2- | A2 F2 G4 | E2 G2 A2 G2- | G2 F2 G2 G2 | E2 E2 F4 | %14
w: _ et que|ie suys de si|tres- court te-|* * nu-|e, plus mal- heu-|* * se ny|a des- soubz|
 G2 F3 EDC | D4 z2 E2 | E2 D2 E3 F | G8 | z2 D2 E3 F | G2 F2 D2 G,2 | A,2 B,3 C D2 | C2 G4 F2 | %22
w: la nu- * * *|e, à|l'en- du- * *|rer,|ce mest _|_ pei- ne trop|du- * * *||
 E2 C2 D4 | B,8 | z2 E2 E2 D2 | E3 F G2 D2 | E3 F G2 F2 | D2 G,2 A,2 B,2- | B,C D2 C2 G2- | %29
w: |re,|à l'en- du-|rer _ _ ce|mest _ _ pei-|ne trop du- *||
 G2 F2 E2 C2 | D4 B,4- | B,8 |] %32
w: |* re.|_|
V:3
 G4 d4 | e4 d4 | c4 z4 | d2 e2 f2 g2- | g2 f4 e2 | d3 c B2 G2 | A4 G2 d2 | d2 d2 B4 | d4 e2 f2 | %9
w: Cest à|grant _|tort,|que moy, po- vret-|* t'en- du-||* re, et|que ie suys|de si tres-|
 g3 f d2 f2- | fe c2 d4 | c4 z2 e2 | e2 c2 d4 | c2 c2 c2 d2 | e3 d c2 B2 | A3 B c4 | G4 z4 | %17
w: court _ _ te-|* * * nu-|e, plus|mal- heu- reu-|se ny a des-|soubz _ _ la|nu- * *|e,|
 z2 B2 c4 | d4 c4 | z4 d2 e2 | f2 g4 f2- | f2 e2 d3 c | B2 G2 A4 | G4 z4 | z4 z2 B2 | c4 d4 | %26
w: à l'en-|du- rer,|ce mest|pei- ne trop|_ du- * *||re,|à|l'en- du-|
 c4 z4 | d2 e2 f2 g2- | g2 f4 e2 | d3 c B2 G2 | A4 G4- | G8 |] %32
w: rer,|ce mest pei- ne|_ trop du-||* re.|_|
V:4
 G,6 G,2 | E,2 C,2 G,4 | z2 C,2 E,2 F,2 | G,2 E,2 D,2 G,2- | G,F,D,E, F,2 C,2 | G,2 D,2 E,4 | %6
w: Cest à|grant _ tort,|que moy, po-|vret- t'en- du- *|||
 D,4 G,4- | G,4 z2 G,2 | G,2 G,2 C,2 F,2 | E,3 F, G,2 D,2 | A,4 G,4 | z2 C2 C3 B, | A,4 G,4 | %13
w: * re,|_ et|que ie suys de|si tres- court te-|nu- e,|plus mal- heu-|reu- se|
 z2 C,2 F,2 D,2 | C,2 F,4 G,2 | D,E,F,G, A,B, C2- | C2 B,2 C4 | G,4 E,2 C,2 | G,4 z2 C,2 | %19
w: ny a des-|soubz la nu-||* * e,|à l'en- du-|rer, ce|
 E,2 F,2 G,2 E,2 | D,2 G,3 F,D,E, | F,2 C,2 G,2 D,2 | E,4 D,4 | z2 G,2 G,3 A, | B,2 C2 G,2 G,2 | %25
w: mest pei- ne trop|du- * * * *||* re,|à l'en- *|* du- rer, à|
 E,2 C,2 G,4 | z2 C,2 E,2 F,2 | G,2 E,2 D,2 G,2- | G,F,D,E, F,2 C,2 | G,2 D,2 E,4 | D,4 G,4- | %31
w: l'en- du- rer,|ce mest pei-|ne trop du- *|||* re.|
 G,8 |] %32
w: _|

